X:1
T:James Gibb editions
T:There is no name so sweet on earth - Barnby
%%score [ ( 1 2 ) ( 3 4 ) ]
L:1/8
Q:1/4=84
M:4/4
K:D
V:1 treble nm="Midi_1"
V:2 treble 
V:3 bass nm="Midi_1"
V:4 bass 
V:1
"^George Washington Bethune\n(1805-62)""^The blessed Name (87. 87. D)""^There is no name so sweet on earth""^Joseph Barnby\n(1838-96)" D2 | %1
 F2 F2 E2 D2 | A3 B A2 || A2 | A2 d2 c2 B2 | A4 F2 || D2 | G3 G G2 F2 | E2 B2 A2 || B2 | %10
 c2 d2 B2 c2 | B4 A2 ||[M:4/4] A2 | d3 d d2 F2 | G2 A2 B2 || B2 | e3 B B2 d2 | d4 c2 || A2 | %19
 d2 e2 d2 A2 | d2 e2 d2 || A2 | B2 E2 F2 G2 | E4 D4 || G4 F4 |] %25
V:2
 D2 | D2 D2 A,2 D2 | C3 C C2 || C2 | D2 D2 D2 D2 | F4 D2 || D2 | D3 D D2 D2 | D2 C2 D2 || F2 | %10
 E2 D2 F2 E2 | D4 C2 ||[M:4/4] E2 | A2 G2 F2 D2 | D2 D2 D2 || ^D2 | E3 E E2 E2 | E4 E2 || A2 | %19
 A2 A2 A2 A2 | A2 A2 A2 || D2 | D2 D2 D2 D2 | C4 D4 || D4 D4 |] %25
V:3
 F,2 | A,2 A,2 G,2 F,2 | G,3 G, G,2 || G,2 | A,2 A,2 G,2 B,2 | D4 A,2 || F,2 | G,3 G, A,2 A,2 | %8
 B,2 G,2 A,2 || A,2 | A,2 A,2 A,2 ^G,2 | ^G,4 A,2 || %12
[M:4/4]"^1 There is no name so sweet on earth,\nno name so sweet in heaven,\nthe name before his wondrous birth\nto Christ the Saviour given.\n\nRefrain:\nWe love to sing around our King,\nand hail him blessed Jesus;\nfor there's no word ear ever heard\nso dear, so sweet as \"Jesus.\"\n\n2 And when he hung upon the tree,\nthey wrote this name above him;\nthat all might see the reason we\nforevermore must love him. [Refrain]" C2 | %13
 D3 D D2 A,2 | G,2 F,2 G,2 || A,2 | ^G,2 A,2 B,2 G,2 | A,4 A,2 || %18
"^3 So now, upon his Father's throne,\nalmighty to release us\nfrom sin and pains, he gladly reigns,\nthe Prince and Saviour Jesus. [Refrain]\n\n4 To Jesus ev'ry knee shall bow,\nand ev'ry tongue confess him,\nand we unite with saints in light,\nour only Lord to bless him. [Refrain]\n\n5 O Jesus, by that matchless name,\nyour grace shall fail us never;\ntoday as yesterday the same,\nyou art the same forever. [Refrain]" C2 | %19
 D2 C2 D2 A,2 | D2 C2 D2 || =C2 | B,2 B,2 B,2 B,2 | G,4 F,4 || B,4 A,4 |] %25
V:4
 D,2 | D,2 D,2 D,2 D,2- | E,3 E, E,2 || E,2 | F,2 F,2 G,2 G,2 | D,4 D,2 || D,2- | %7
 B,,3 B,, A,,2 A,,2 | G,,2 G,2 F,2 || D,2 | E,2 F,2 D,2 E,2 | A,,4 A,2 ||[M:4/4] G,2 | %13
 F,2 E,2 D,2 =C,2 | B,,2 D,2 G,2 || F,2 | E,2 F,2 ^G,2 E,2 | A,4 A,2 || G,2 | F,2 G,2 F,2 A,2 | %20
 F,2 G,2 F,2 || D,2 | G,2 G,2 F,2 E,2 | A,,4 D,4 || G,,4 D,4 |] %25

